src/icons/refresh.svg

<svg width="24" height="24" viewBox="0 0 24 24" fill="none" xmlns="http://www.w3.org/2000/svg">
<path fill-rule="evenodd" clip-rule="evenodd" d="M3 1V3H5.67384C2.8469 4.99073 1 8.27968 1 12C1 18.0751 5.92487 23 12 23V21C7.02944 21 3 16.9706 3 12C3 8.87958 4.58803 6.13007 7 4.51555V7H9V1H3ZM21 23V21H18.3262C21.1531 19.0093 23 15.7203 23 12C23 5.92487 18.0751 1 12 1V3C16.9706 3 21 7.02944 21 12C21 15.1204 19.412 17.8699 17 19.4845V17H15V23H21Z" fill="black"/>
</svg>

<svg xmlns="http://www.w3.org/2000/svg" width="24" height="24" fill="none"><path fill="currentColor" fill-rule="evenodd" d="M3 1v2h2.674A10.99 10.99 0 0 0 1 12c0 6.075 4.925 11 11 11v-2A9 9 0 0 1 7 4.516V7h2V1zm18 22v-2h-2.674A10.99 10.99 0 0 0 23 12c0-6.075-4.925-11-11-11v2a9 9 0 0 1 5 16.485V17h-2v6z" clip-rule="evenodd"/></svg>
